X:4
T:The Dregs Of Birch
R:reel
M:4/4
L:1/8
K:Gmaj
|: GA |B2 AG (3Bcd ed | GBAG E2GA | (3Bcd gf ed GA | (3Bcd BA GE ED |
B2 AG (3Bcd ef | gfed g2 GA | B2 BG A2 ed | de G2 G2 :|
|: bd | e3f gfed | GBBA GEED | edef g3 a | gfed g2fg |
e3f gfed | GBBA Gedc | B2 BG A2 ed | de G2 G2 :|